svgs/mijn_hr.svg

<svg width="192" height="192" viewBox="0 0 192 192" fill="none" xmlns="http://www.w3.org/2000/svg"><path d="M89.14 122.684c3.358 15.917 23.707 18.812 45.764 6.393 21.793-12.289 37.125-34.948 34.877-51.196-.888 6.48-7.178 14.478-15.605 19.23-8.948 5.033-17.229 4.623-19.691-.54 6.248-7.282 10.692-15.236 12.58-22.693 1.052-4.178 1.308-8.199.607-11.862-3.051-16.213-23.365-19.318-45.457-7.02L99.198 39 22 82.495 35.298 153l53.841-30.316Zm0 0-3.325-17.627M75.84 52.178 79.486 71.5" stroke="#000" stroke-width="12" stroke-linecap="round" stroke-linejoin="round"/><ellipse cx="82.392" cy="89.32" rx="12" ry="20" transform="rotate(30 82.392 89.32)" stroke="#000" stroke-width="12"/></svg>

<?xml version="1.0" encoding="UTF-8" standalone="no"?><svg xmlns:android="http://schemas.android.com/apk/res/android" height="192" width="192" xmlns="http://www.w3.org/2000/svg">
  <path d="M89.139,122.684C92.498,138.601 112.847,141.496 134.904,129.077C156.697,116.788 172.029,94.129 169.781,77.881C168.893,84.361 162.603,92.359 154.176,97.112C145.228,102.144 136.947,101.734 134.485,96.571C140.733,89.289 145.177,81.335 147.065,73.878C148.117,69.7 148.373,65.679 147.672,62.016C144.621,45.803 124.307,42.698 102.215,54.995L99.198,39L22,82.495L35.298,153L89.139,122.684ZM89.139,122.684L85.815,105.057M75.841,52.178L79.486,71.5" fill="#000000" fill-opacity="0.0" stroke="#000000" stroke-linecap="round" stroke-linejoin="round" stroke-width="12"/>
  <path d="M72,83.321a20,12 120,1 0,20.785 12a20,12 120,1 0,-20.785 -12z" fill="#000000" fill-opacity="0.0" stroke="#000000" stroke-width="12"/>
</svg>
